packages/tokens/icons/contentCreation/size24Px.svg

<svg viewBox="0 0 24 24" fill="none" xmlns="http://www.w3.org/2000/svg" width="1em" height="1em"><path d="M18.8573 7.76607L12.7244 15.0748C12.5717 15.2569 12.4887 15.4874 12.4905 15.725L12.5 17L13.6964 16.7185C13.9064 16.6691 14.0948 16.5531 14.2334 16.3879L20.3893 9.05166C20.7443 8.62858 20.6892 7.99782 20.2661 7.64282C19.843 7.28782 19.2123 7.343 18.8573 7.76607Z" stroke="currentColor" stroke-linejoin="round"/><path d="M19 15.5C19 15.2239 18.7761 15 18.5 15C18.2239 15 18 15.2239 18 15.5H19ZM17.875 7.03846C18.1511 7.03846 18.375 6.8146 18.375 6.53846C18.375 6.26232 18.1511 6.03846 17.875 6.03846V7.03846ZM16.329 3.05016L15.9846 3.41262V3.41262L16.329 3.05016ZM17.9556 5.28554C18.1558 5.47575 18.4722 5.46768 18.6625 5.26749C18.8527 5.06731 18.8446 4.75083 18.6444 4.56062L17.9556 5.28554ZM16.5 21L5.5 21L5.5 22L16.5 22V21ZM4 19.5L4 4.5H3L3 19.5H4ZM5.5 3L14.9513 3V2L5.5 2V3ZM18 15.5L18 19.5H19L19 15.5H18ZM15.25 2.90385V4.53846H16.25V2.90385L15.25 2.90385ZM17.75 7.03846H17.875V6.03846H17.75V7.03846ZM15.9846 3.41262L17.9556 5.28554L18.6444 4.56062L16.6734 2.68771L15.9846 3.41262ZM14.9513 3C15.3359 3 15.7058 3.14771 15.9846 3.41262L16.6734 2.68771C16.2088 2.24619 15.5923 2 14.9513 2V3ZM5.5 21C4.67157 21 4 20.3284 4 19.5H3C3 20.8807 4.11929 22 5.5 22L5.5 21ZM15.25 4.53846C15.25 5.91917 16.3693 7.03846 17.75 7.03846V6.03846C16.9216 6.03846 16.25 5.36689 16.25 4.53846H15.25ZM16.5 22C17.8807 22 19 20.8807 19 19.5H18C18 20.3284 17.3284 21 16.5 21V22ZM4 4.5C4 3.67157 4.67157 3 5.5 3V2C4.11929 2 3 3.11929 3 4.5H4Z" fill="currentColor"/><line x1="6.5" y1="7.5" x2="15.5" y2="7.5" stroke="currentColor" stroke-linecap="round"/><line x1="6.5" y1="10.5" x2="12.5" y2="10.5" stroke="currentColor" stroke-linecap="round"/><line x1="6.5" y1="13.5" x2="10.5" y2="13.5" stroke="currentColor" stroke-linecap="round"/><line x1="6.5" y1="16.5" x2="10.5" y2="16.5" stroke="currentColor" stroke-linecap="round"/></svg>

<svg xmlns="http://www.w3.org/2000/svg" fill="none" viewBox="0 0 24 24" width="1em" height="1em"><path stroke="currentColor" stroke-linejoin="round" d="m18.857 7.766-6.133 7.309a1 1 0 0 0-.233.65L12.5 17l1.196-.282a1 1 0 0 0 .537-.33l6.156-7.336a1 1 0 1 0-1.532-1.286Z"/><path fill="currentColor" d="M19 15.5a.5.5 0 0 0-1 0h1Zm-1.125-8.462a.5.5 0 0 0 0-1v1ZM16.329 3.05l-.344.363.344-.363Zm1.627 2.236a.5.5 0 0 0 .688-.725l-.688.725ZM16.5 21h-11v1h11v-1ZM4 19.5v-15H3v15h1ZM5.5 3h9.451V2H5.5v1ZM18 15.5v4h1v-4h-1ZM15.25 2.904v1.634h1V2.904h-1Zm2.5 4.134h.125v-1h-.125v1Zm-1.765-3.625 1.97 1.873.69-.725-1.972-1.873-.688.725ZM14.95 3a1.5 1.5 0 0 1 1.034.413l.688-.725A2.5 2.5 0 0 0 14.951 2v1ZM5.5 21A1.5 1.5 0 0 1 4 19.5H3A2.5 2.5 0 0 0 5.5 22v-1Zm9.75-16.462a2.5 2.5 0 0 0 2.5 2.5v-1a1.5 1.5 0 0 1-1.5-1.5h-1ZM16.5 22a2.5 2.5 0 0 0 2.5-2.5h-1a1.5 1.5 0 0 1-1.5 1.5v1ZM4 4.5A1.5 1.5 0 0 1 5.5 3V2A2.5 2.5 0 0 0 3 4.5h1Z"/><path stroke="currentColor" stroke-linecap="round" d="M6.5 7.5h9m-9 3h6m-6 3h4m-4 3h4"/></svg>
